X: 38744
T: Striking Clock, The
R: slip jig
M: 9/8
K: Bminor
|:~B3 dBf edB|~G3 Bdg fdB|~E3 Bdg fed|f3 efe dBA|
~B3 dBf edB|~G3 Bdg fdB|~E3 Bdg fdB|1 e2f g2g fed:|2 FBf efg aga||
|:b2f abf faf|a2f efe dBA|B2E ~E3 EBA|B2d B/c/df efa|b2f abf faf|
a2f efe dAA|1 aAa faf efe|d2A BAF Adf:|2 aAa faf dBA|aAa fFf dBA||

